src/assets/svg/icons/fa/nuevos/classic/duotone/baht-sign classic duotone.svg

<svg xmlns="http://www.w3.org/2000/svg" viewBox="0 0 320 512"><!--! Font Awesome Pro 6.4.0 by @fontawesome - https://fontawesome.com License - https://fontawesome.com/license (Commercial License) Copyright 2023 Fonticons, Inc. --><defs><style>.fa-secondary{opacity:.4}</style></defs><path class="fa-primary" d="M64 224H176c26.5 0 48-21.5 48-48s-21.5-48-48-48H64v96zM0 265.7V224 101.6C0 80.8 16.8 64 37.6 64H176c61.9 0 112 50.1 112 112c0 24.2-7.7 46.6-20.7 64.9c31.7 19.8 52.7 55 52.7 95.1c0 61.9-50.1 112-112 112H41.7C18.7 448 0 429.3 0 406.3V288 265.7zM176 288H64v96H208c26.5 0 48-21.5 48-48s-21.5-48-48-48H176z"/><path class="fa-secondary" d="M144 0c17.7 0 32 14.3 32 32V64H112V32c0-17.7 14.3-32 32-32zm32 288v96H112V288h64zm0-160v96H112V128h64zM112 448h64v32c0 17.7-14.3 32-32 32s-32-14.3-32-32V448z"/></svg>

<svg xmlns="http://www.w3.org/2000/svg" viewBox="0 0 320 512"><defs><style>.fa-secondary{opacity:.4}</style></defs><path class="fa-primary" d="M0 101.6C0 80.82 16.82 64 37.57 64H176C237.9 64 288 114.1 288 176C288 200.2 280.3 222.6 267.3 240.9C298.9 260.7 320 295.9 320 336C320 397.9 269.9 448 208 448H41.74C18.69 448 0 429.3 0 406.3V101.6zM176 224C202.5 224 224 202.5 224 176C224 149.5 202.5 128 176 128H64V224H176zM64 288V384H208C234.5 384 256 362.5 256 336C256 309.5 234.5 288 208 288H64z"/><path class="fa-secondary" d="M176 32V64H112V32C112 14.33 126.3 0 144 0C161.7 0 176 14.33 176 32zM176 288V384H112V288H176zM176 128V224H112V128H176zM112 448H176V480C176 497.7 161.7 512 144 512C126.3 512 112 497.7 112 480V448z"/></svg>
